X:1
T:Title
%%score { ( 1 2 ) | ( 3 4 ) }
L:1/8
M:4/4
K:F
V:1 treble nm="Grand Piano"
V:2 treble 
V:3 bass 
V:4 bass 
V:1
 z4 z2[Q:1/4=100] z G | A2 A2 AGAB | c2 c2 c2 [EA][EG] | F2 F2 F2 EF | [FA]2 [EG]2 [EG]2 [EG][FA] | %5
 [GB]2 [GB]2 [EB]2 [Ec][Ed] | c2 c2 A2 FG | A2 C2 [CF]2 [DB][DB] |[M:11/16] A-<AG-<GF3/2 | %9
[M:3/8] ccc |[M:4/4] c4 A2 (3CFA | c6 z2 | B4 G2 (3CEG | B6 z2 | FFFG A2 GA | %15
 [DB][DB][DB][DB] [DB][DFB][CFc][Fd] | [Fc]4 [A,F]2 [CEA]>[B,EG] |[M:3/4] F6 |] %18
V:2
 z4 z2 F2 | x8 | x8 | x8 | x8 | x8 | x8 | x8 |[M:11/16] x11/2 |[M:3/8] x3 |[M:4/4] x8 | %11
 z2 F>F EBBB | x8 | z2 E>E E2 [EA]>[EG] | x8 | x8 | x8 |[M:3/4] A,2 D>D C2 |] %18
V:3
 z4 z2 A,B, | [F,CF]2 [F,CF]2 [F,CF][K:treble][B,CE][A,CF][G,CE] | %2
 [F,A,F]2 [F,A,F]2[K:bass] [F,A,F]2 [C,C][C,B,] | [D,A,D]2 [D,A,D]2 [D,A,D]2 [D,=B,D][D,B,D] | %4
 [C,C]2 [C,C]2 [C,C]2 [C,C][C,C] | [C,C]2 [C,C]2 [C,G,]2 [C,B,][C,B,] | %6
 [F,A,F]2 [F,A,F]2 [F,CF]2 [F,A,C][F,B,C] | [F,CF]2 [F,A,]2 [A,,F,]2 [B,,F,][B,,F,] | %8
[M:11/16] [C,F,C]-<[C,F,C][C,B,C]-<[C,B,C][F,A,C]3/2 |[M:3/8] [F,A,F][F,A,F][F,A,F] | %10
[M:4/4] [F,A,F]4 [F,CF]2 (3C,F,A, | C2 [F,A,]>[F,A,] [C,G,][K:treble][CEG][CEG][CEG] | %12
 [CEG]4 [CE]2[K:bass] (3C,E,G, | B,2 [G,C]>[E,C] [C,C]2 [C,C]>[C,B,] | %14
 [F,A,C][F,A,C][F,A,C][F,B,C] [F,CF]2 [F,CE][F,C_E] | %15
 [B,,B,][B,,F,][B,,F,][B,,F,] [B,,F,]B,,A,,[B,,B,] | [C,A,]4 C,2 C,>C, |[M:3/4] z2 B,>B, A,2 |] %18
V:4
 z4 z2 F,2 | x5[K:treble] x3 | x4[K:bass] x4 | x8 | x8 | x8 | x8 | x8 |[M:11/16] x11/2 | %9
[M:3/8] x3 |[M:4/4] x8 | x5[K:treble] x3 | x6[K:bass] x2 | x8 | x8 | x8 | x8 |[M:3/4] F,6 |] %18

